X:1
P: The Reel of Tulloch
C: 18th C. Scottish pipe tune
C: Jerry Holland Collection, arr. T. Traub 2-24-2004
R: Strathspey
M: 4/4
K: D
L: 1/8
a|: "A"c>A A/A/A/A/ c<AAa|"A"c>A A/A/A/A/ "G"dBG>a|"A"c>A A/A/A/A/ e<ac<A|"G"B>GB>c d>BG>B :|
"A"e2 A/A/f e>A ABG>B|"A"e2 A>f e>Ae>c|"G"B<GBc d>BGB|
"A"e2 A/A/f e>A ABG>B|"A"e2 A>f e>Ae>d|"G"(3efg (3dgg B<GG>B |]
